; G-Code generated by Simplify3D(R) Version 4.1.2
; Mar 13, 2021 at 2:12:37 AM
; Settings Summary
;   processName,Process2
;   applyToModels,Adapter
;   profileName,Anycubic Kossel(2) (modified)
;   profileVersion,2021-02-01 00:17:12
;   baseProfile,Default (modified)
;   printMaterial,PLA
;   printQuality,Medium
;   printExtruders,
;   extruderName,Primary Extruder
;   extruderToolheadNumber,0
;   extruderDiameter,0.4
;   extruderAutoWidth,0
;   extruderWidth,0.4
;   extrusionMultiplier,0.97
;   extruderUseRetract,1
;   extruderRetractionDistance,6
;   extruderExtraRestartDistance,0
;   extruderRetractionZLift,0
;   extruderRetractionSpeed,7200
;   extruderUseCoasting,1
;   extruderCoastingDistance,0.06
;   extruderUseWipe,0
;   extruderWipeDistance,5
;   primaryExtruder,0
;   layerHeight,0.15
;   topSolidLayers,6
;   bottomSolidLayers,6
;   perimeterOutlines,3
;   printPerimetersInsideOut,1
;   startPointOption,2
;   startPointOriginX,0
;   startPointOriginY,0
;   sequentialIslands,0
;   spiralVaseMode,0
;   firstLayerHeightPercentage,90
;   firstLayerWidthPercentage,110
;   firstLayerUnderspeed,0.35
;   useRaft,0
;   raftExtruder,0
;   raftTopLayers,3
;   raftBaseLayers,2
;   raftOffset,3
;   raftSeparationDistance,0.14
;   raftTopInfill,100
;   aboveRaftSpeedMultiplier,0.3
;   useSkirt,1
;   skirtExtruder,0
;   skirtLayers,2
;   skirtOutlines,4
;   skirtOffset,2
;   usePrimePillar,0
;   primePillarExtruder,999
;   primePillarWidth,12
;   primePillarLocation,7
;   primePillarSpeedMultiplier,1
;   useOozeShield,0
;   oozeShieldExtruder,999
;   oozeShieldOffset,2
;   oozeShieldOutlines,1
;   oozeShieldSidewallShape,1
;   oozeShieldSidewallAngle,30
;   oozeShieldSpeedMultiplier,1
;   infillExtruder,0
;   internalInfillPattern,Grid
;   externalInfillPattern,Rectilinear
;   infillPercentage,20
;   outlineOverlapPercentage,50
;   infillExtrusionWidthPercentage,200
;   minInfillLength,0
;   infillLayerInterval,1
;   internalInfillAngles,45,-45
;   overlapInternalInfillAngles,1
;   externalInfillAngles,45,-45
;   generateSupport,0
;   supportExtruder,0
;   supportInfillPercentage,15
;   supportExtraInflation,0
;   supportBaseLayers,0
;   denseSupportExtruder,0
;   denseSupportLayers,0
;   denseSupportInfillPercentage,70
;   supportLayerInterval,1
;   supportHorizontalPartOffset,0.3
;   supportUpperSeparationLayers,1
;   supportLowerSeparationLayers,1
;   supportType,1
;   supportGridSpacing,4
;   maxOverhangAngle,60
;   supportAngles,0
;   temperatureName,Primary Extruder,Build Plate
;   temperatureNumber,0,0
;   temperatureSetpointCount,2,1
;   temperatureSetpointLayers,1,3,1
;   temperatureSetpointTemperatures,205,200,60
;   temperatureStabilizeAtStartup,1,1
;   temperatureHeatedBed,0,1
;   fanLayers,1,3,6
;   fanSpeeds,0,50,100
;   blipFanToFullPower,0
;   adjustSpeedForCooling,1
;   minSpeedLayerTime,15
;   minCoolingSpeedSlowdown,20
;   increaseFanForCooling,0
;   minFanLayerTime,10
;   maxCoolingFanSpeed,30
;   increaseFanForBridging,1
;   bridgingFanSpeed,100
;   use5D,1
;   relativeEdistances,0
;   allowEaxisZeroing,1
;   independentExtruderAxes,0
;   includeM10123,0
;   stickySupport,1
;   applyToolheadOffsets,0
;   gcodeXoffset,0
;   gcodeYoffset,0
;   gcodeZoffset,0
;   overrideMachineDefinition,1
;   machineTypeOverride,1
;   strokeXoverride,230
;   strokeYoverride,230
;   strokeZoverride,300
;   originOffsetXoverride,115
;   originOffsetYoverride,115
;   originOffsetZoverride,0
;   homeXdirOverride,0
;   homeYdirOverride,0
;   homeZdirOverride,1
;   flipXoverride,1
;   flipYoverride,-1
;   flipZoverride,1
;   toolheadOffsets,0,0|0,0|0,0|0,0|0,0|0,0
;   overrideFirmwareConfiguration,1
;   firmwareTypeOverride,RepRap (Marlin/Repetier/Sprinter)
;   GPXconfigOverride,r2
;   baudRateOverride,115200
;   overridePrinterModels,0
;   printerModelsOverride
;   startingGcode,G21;	;metric values,G90;	;absolute positioning,G28;	;home,M205 X8 Y8 ; set jerk x/y=8,G1 Z15.0 F5000;,M107;,G92 E0;,G1 F200 E3;,G92 E0,
;   layerChangeGcode,
;   retractionGcode,
;   toolChangeGcode,
;   endingGcode,G92 E0;,G1 E-8.0 F5000;,M104 S0;	;extruder heater off,M140 S0;	;heated bed off,G28;,M84;	;steppers off,M107;
;   exportFileFormat,gcode
;   celebration,0
;   celebrationSong,Star Wars
;   postProcessing,
;   defaultSpeed,1800
;   outlineUnderspeed,0.4
;   solidInfillUnderspeed,0.6
;   supportUnderspeed,0.6
;   rapidXYspeed,7200
;   rapidZspeed,1002
;   minBridgingArea,50
;   bridgingExtraInflation,0
;   bridgingExtrusionMultiplier,0.98
;   bridgingSpeedMultiplier,1.05
;   useFixedBridgingAngle,0
;   fixedBridgingAngle,0
;   applyBridgingToPerimeters,1
;   filamentDiameters,1.75|1.75|1.75|1.75|1.75|1.75
;   filamentPricesPerKg,46|46|46|46|46|46
;   filamentDensities,1.24|1.25|1.25|1.25|1.25|1.25
;   useMinPrintHeight,0
;   minPrintHeight,0
;   useMaxPrintHeight,0
;   maxPrintHeight,0
;   useDiaphragm,0
;   diaphragmLayerInterval,20
;   robustSlicing,1
;   mergeAllIntoSolid,0
;   onlyRetractWhenCrossingOutline,0
;   retractBetweenLayers,1
;   useRetractionMinTravel,1
;   retractionMinTravel,2.8
;   retractWhileWiping,1
;   onlyWipeOutlines,1
;   avoidCrossingOutline,1
;   maxMovementDetourFactor,3
;   toolChangeRetractionDistance,12
;   toolChangeExtraRestartDistance,-0.5
;   toolChangeRetractionSpeed,600
;   externalThinWallType,1
;   internalThinWallType,1
;   thinWallAllowedOverlapPercentage,30
;   singleExtrusionMinLength,1
;   singleExtrusionMinPrintingWidthPercentage,50
;   singleExtrusionMaxPrintingWidthPercentage,200
;   singleExtrusionEndpointExtension,0.2
;   horizontalSizeCompensation,0
G90
M82
M106 S0
M140 S60
M190 S60
M104 S205 T0
M109 S205 T0
G21;	;metric values
G90;	;absolute positioning
G28;	;home
M205 X8 Y8 ; set jerk x/y=8
G1 Z15.0 F5000;
M107;
G92 E0;
G1 F200 E3;
G92 E0
; process Process2
; layer 1, Z = 0.135
T0
G92 E0.0000
G1 E-6.0000 F7200
; feature skirt
; tool H0.135 W0.440
G1 Z0.135 F1002
G1 X-25.877 Y25.011 F7200
G1 E0.0000 F7200
G92 E0.0000
G1 X-26.196 Y25.039 E0.0077 F630
G1 X-26.355 Y25.082 E0.0116
G1 X-26.505 Y25.152 E0.0156
G1 X-26.640 Y25.246 E0.0195
G1 X-26.756 Y25.363 E0.0235
G1 X-26.940 Y25.625 E0.0311
G1 X-34.912 Y39.433 E0.4131
G1 X-35.021 Y39.599 E0.4178
G1 X-35.597 Y40.380 E0.4411
G1 X-35.867 Y40.671 E0.4506
G1 X-36.678 Y41.369 E0.4762
G1 X-37.007 Y41.593 E0.4857
G1 X-37.952 Y42.093 E0.5114
G1 X-38.322 Y42.238 E0.5209
G1 X-39.355 Y42.515 E0.5465
G1 X-39.748 Y42.574 E0.5560
G1 X-40.817 Y42.614 E0.5816
G1 X-41.213 Y42.584 E0.5912
G1 X-42.264 Y42.385 E0.6168
G1 X-42.644 Y42.268 E0.6263
G1 X-43.533 Y41.880 E0.6496
G1 X-43.710 Y41.791 E0.6543
G1 X-63.348 Y30.453 E1.1975
G1 X-64.107 Y27.620 E1.2677
G1 X-35.358 Y-22.174 E2.6451
G1 X-35.327 Y-22.227 E2.6466
G1 X-33.895 Y-24.518 E2.7113
G1 X-33.826 Y-24.621 E2.7142
G1 X-32.219 Y-26.832 E2.7797
G1 X-32.143 Y-26.929 E2.7827
G1 X-30.387 Y-29.023 E2.8481
G1 X-30.304 Y-29.114 E2.8511
G1 X-28.405 Y-31.080 E2.9166
G1 X-28.317 Y-31.166 E2.9195
G1 X-26.286 Y-32.995 E2.9850
G1 X-26.191 Y-33.074 E2.9880
G1 X-24.037 Y-34.757 E3.0534
G1 X-23.937 Y-34.829 E3.0564
G1 X-21.672 Y-36.358 E3.1218
G1 X-21.567 Y-36.423 E3.1248
G1 X-19.200 Y-37.790 E3.1903
G1 X-19.091 Y-37.848 E3.1932
G1 X-16.635 Y-39.046 E3.2587
G1 X-16.522 Y-39.096 E3.2617
G1 X-13.988 Y-40.120 E3.3271
G1 X-13.872 Y-40.162 E3.3301
G1 X-11.273 Y-41.006 E3.3956
G1 X-11.154 Y-41.041 E3.3985
G1 X-8.502 Y-41.702 E3.4640
G1 X-8.381 Y-41.727 E3.4669
G1 X-5.690 Y-42.202 E3.5324
G1 X-5.568 Y-42.219 E3.5354
G1 X-2.849 Y-42.505 E3.6008
G1 X-2.726 Y-42.513 E3.6038
G1 X0.005 Y-42.609 E3.6693
G1 X0.129 Y-42.609 E3.6722
G1 X2.860 Y-42.513 E3.7377
G1 X2.983 Y-42.505 E3.7406
G1 X5.701 Y-42.219 E3.8061
G1 X5.824 Y-42.202 E3.8091
G1 X8.515 Y-41.727 E3.8745
G1 X8.636 Y-41.702 E3.8775
G1 X11.287 Y-41.041 E3.9430
G1 X11.406 Y-41.006 E3.9459
G1 X14.005 Y-40.162 E4.0114
G1 X14.122 Y-40.120 E4.0144
G1 X16.655 Y-39.096 E4.0798
G1 X16.768 Y-39.046 E4.0828
G1 X19.225 Y-37.848 E4.1482
G1 X19.334 Y-37.790 E4.1512
G1 X21.701 Y-36.423 E4.2167
G1 X21.805 Y-36.358 E4.2196
G1 X24.071 Y-34.829 E4.2851
G1 X24.171 Y-34.757 E4.2881
G1 X26.325 Y-33.074 E4.3535
G1 X26.419 Y-32.995 E4.3565
G1 X28.450 Y-31.166 E4.4220
G1 X28.539 Y-31.080 E4.4249
G1 X30.438 Y-29.114 E4.4904
G1 X30.520 Y-29.023 E4.4933
G1 X32.277 Y-26.929 E4.5588
G1 X32.353 Y-26.832 E4.5618
G1 X33.959 Y-24.621 E4.6272
G1 X34.028 Y-24.518 E4.6302
G1 X35.462 Y-22.225 E4.6950
G1 X35.496 Y-22.168 E4.6966
G1 X64.107 Y27.705 E6.0739
G1 X63.346 Y30.531 E6.1440
G1 X43.844 Y41.791 E6.6834
G1 X43.667 Y41.880 E6.6882
G1 X42.778 Y42.268 E6.7114
G1 X42.398 Y42.385 E6.7210
G1 X41.347 Y42.584 E6.7466
G1 X40.950 Y42.614 E6.7561
G1 X39.882 Y42.574 E6.7817
G1 X39.489 Y42.515 E6.7912
G1 X38.456 Y42.238 E6.8169
G1 X38.086 Y42.093 E6.8264
G1 X37.140 Y41.593 E6.8520
G1 X36.812 Y41.369 E6.8615
G1 X36.001 Y40.671 E6.8871
G1 X35.731 Y40.380 E6.8967
G1 X35.155 Y39.599 E6.9199
G1 X35.046 Y39.433 E6.9247
G1 X27.074 Y25.625 E7.3066
G1 X26.890 Y25.363 E7.3143
G1 X26.773 Y25.246 E7.3182
G1 X26.638 Y25.152 E7.3222
G1 X26.489 Y25.082 E7.3261
G1 X26.329 Y25.039 E7.3301
G1 X26.010 Y25.011 E7.3377
G1 X-25.877 Y25.011 E8.5807
G1 X-25.896 Y24.571 F7200
G92 E0.0000
G1 X-26.272 Y24.604 E0.0091 F630
G1 X-26.506 Y24.667 E0.0148
G1 X-26.726 Y24.769 E0.0206
G1 X-26.924 Y24.908 E0.0264
G1 X-27.095 Y25.079 E0.0322
G1 X-27.312 Y25.388 E0.0413
G1 X-35.287 Y39.203 E0.4234
G1 X-35.382 Y39.348 E0.4276
G1 X-35.936 Y40.099 E0.4499
G1 X-36.173 Y40.354 E0.4583
G1 X-36.946 Y41.019 E0.4827
G1 X-37.234 Y41.215 E0.4910
G1 X-38.136 Y41.692 E0.5155
G1 X-38.460 Y41.819 E0.5238
G1 X-39.445 Y42.083 E0.5482
G1 X-39.789 Y42.135 E0.5566
G1 X-40.809 Y42.173 E0.5810
G1 X-41.156 Y42.147 E0.5893
G1 X-42.158 Y41.958 E0.6138
G1 X-42.491 Y41.855 E0.6221
G1 X-43.346 Y41.482 E0.6445
G1 X-43.501 Y41.403 E0.6486
G1 X-62.970 Y30.163 E1.1872
G1 X-63.635 Y27.682 E1.2487
G1 X-34.979 Y-21.951 E2.6216
G1 X-34.951 Y-21.997 E2.6229
G1 X-33.526 Y-24.279 E2.6873
G1 X-33.465 Y-24.368 E2.6899
G1 X-31.868 Y-26.567 E2.7550
G1 X-31.801 Y-26.652 E2.7576
G1 X-30.054 Y-28.734 E2.8227
G1 X-29.982 Y-28.814 E2.8253
G1 X-28.094 Y-30.769 E2.8904
G1 X-28.016 Y-30.844 E2.8930
G1 X-25.997 Y-32.663 E2.9581
G1 X-25.914 Y-32.732 E2.9607
G1 X-23.773 Y-34.405 E3.0258
G1 X-23.685 Y-34.469 E3.0283
G1 X-21.432 Y-35.989 E3.0934
G1 X-21.340 Y-36.046 E3.0960
G1 X-18.987 Y-37.405 E3.1611
G1 X-18.891 Y-37.456 E3.1637
G1 X-16.449 Y-38.647 E3.2288
G1 X-16.350 Y-38.691 E3.2314
G1 X-13.830 Y-39.709 E3.2965
G1 X-13.729 Y-39.746 E3.2991
G1 X-11.144 Y-40.586 E3.3642
G1 X-11.040 Y-40.615 E3.3668
G1 X-8.403 Y-41.273 E3.4319
G1 X-8.297 Y-41.295 E3.4345
G1 X-5.621 Y-41.767 E3.4996
G1 X-5.514 Y-41.782 E3.5022
G1 X-2.811 Y-42.066 E3.5673
G1 X-2.703 Y-42.074 E3.5699
G1 X0.013 Y-42.169 E3.6350
G1 X0.121 Y-42.169 E3.6376
G1 X2.837 Y-42.074 E3.7027
G1 X2.945 Y-42.066 E3.7053
G1 X5.647 Y-41.782 E3.7704
G1 X5.755 Y-41.767 E3.7729
G1 X8.431 Y-41.295 E3.8380
G1 X8.537 Y-41.273 E3.8406
G1 X11.174 Y-40.615 E3.9057
G1 X11.278 Y-40.586 E3.9083
G1 X13.862 Y-39.746 E3.9734
G1 X13.964 Y-39.709 E3.9760
G1 X16.483 Y-38.691 E4.0411
G1 X16.582 Y-38.647 E4.0437
G1 X19.025 Y-37.456 E4.1088
G1 X19.120 Y-37.405 E4.1114
G1 X21.474 Y-36.046 E4.1765
G1 X21.566 Y-35.989 E4.1791
G1 X23.819 Y-34.469 E4.2442
G1 X23.906 Y-34.405 E4.2468
G1 X26.048 Y-32.732 E4.3119
G1 X26.130 Y-32.663 E4.3145
G1 X28.150 Y-30.844 E4.3796
G1 X28.228 Y-30.769 E4.3822
G1 X30.116 Y-28.814 E4.4473
G1 X30.188 Y-28.734 E4.4499
G1 X31.935 Y-26.652 E4.5150
G1 X32.002 Y-26.567 E4.5175
G1 X33.599 Y-24.368 E4.5826
G1 X33.659 Y-24.279 E4.5852
G1 X35.086 Y-21.995 E4.6497
G1 X35.116 Y-21.945 E4.6511
G1 X63.635 Y27.766 E6.0240
G1 X62.968 Y30.241 E6.0854
G1 X43.635 Y41.403 E6.6202
G1 X43.479 Y41.482 E6.6243
G1 X42.624 Y41.855 E6.6467
G1 X42.292 Y41.958 E6.6550
G1 X41.289 Y42.147 E6.6795
G1 X40.942 Y42.173 E6.6878
G1 X39.923 Y42.135 E6.7122
G1 X39.579 Y42.083 E6.7206
G1 X38.593 Y41.819 E6.7450
G1 X38.269 Y41.692 E6.7534
G1 X37.368 Y41.215 E6.7778
G1 X37.080 Y41.019 E6.7861
G1 X36.307 Y40.354 E6.8106
G1 X36.070 Y40.099 E6.8189
G1 X35.516 Y39.348 E6.8412
G1 X35.421 Y39.202 E6.8454
G1 X27.445 Y25.388 E7.2275
G1 X27.228 Y25.079 E7.2366
G1 X27.057 Y24.908 E7.2424
G1 X26.859 Y24.769 E7.2482
G1 X26.640 Y24.667 E7.2540
G1 X26.406 Y24.604 E7.2598
G1 X26.030 Y24.571 E7.2688
G1 X-25.896 Y24.571 E8.5127
G1 X-25.915 Y24.131 F7200
G92 E0.0000
G1 X-26.349 Y24.169 E0.0104 F630
G1 X-26.657 Y24.252 E0.0181
G1 X-26.946 Y24.387 E0.0257
G1 X-27.208 Y24.569 E0.0334
G1 X-27.433 Y24.795 E0.0410
G1 X-27.683 Y25.152 E0.0514
G1 X-35.662 Y38.972 E0.4337
G1 X-35.744 Y39.097 E0.4373
G1 X-36.276 Y39.817 E0.4587
G1 X-36.479 Y40.036 E0.4659
G1 X-37.215 Y40.670 E0.4891
G1 X-37.461 Y40.838 E0.4963
G1 X-38.319 Y41.291 E0.5195
G1 X-38.598 Y41.401 E0.5267
G1 X-39.535 Y41.652 E0.5500
G1 X-39.831 Y41.696 E0.5571
G1 X-40.800 Y41.733 E0.5804
G1 X-41.098 Y41.710 E0.5875
G1 X-42.052 Y41.530 E0.6108
G1 X-42.337 Y41.442 E0.6179
G1 X-43.159 Y41.083 E0.6394
G1 X-43.292 Y41.016 E0.6430
G1 X-62.592 Y29.873 E1.1768
G1 X-63.163 Y27.745 E1.2296
G1 X-34.600 Y-21.727 E2.5980
G1 X-34.576 Y-21.767 E2.5991
G1 X-33.157 Y-24.039 E2.6633
G1 X-33.105 Y-24.116 E2.6655
G1 X-31.516 Y-26.302 E2.7303
G1 X-31.459 Y-26.375 E2.7325
G1 X-29.722 Y-28.445 E2.7972
G1 X-29.660 Y-28.514 E2.7995
G1 X-27.783 Y-30.458 E2.8642
G1 X-27.716 Y-30.522 E2.8664
G1 X-25.708 Y-32.331 E2.9311
G1 X-25.637 Y-32.390 E2.9334
G1 X-23.508 Y-34.054 E2.9981
G1 X-23.433 Y-34.108 E3.0003
G1 X-21.192 Y-35.620 E3.0650
G1 X-21.114 Y-35.669 E3.0673
G1 X-18.773 Y-37.020 E3.1320
G1 X-18.691 Y-37.063 E3.1342
G1 X-16.263 Y-38.248 E3.1990
G1 X-16.178 Y-38.286 E3.2012
G1 X-13.673 Y-39.298 E3.2659
G1 X-13.585 Y-39.330 E3.2681
G1 X-11.015 Y-40.165 E3.3329
G1 X-10.926 Y-40.190 E3.3351
G1 X-8.304 Y-40.844 E3.3998
G1 X-8.213 Y-40.863 E3.4020
G1 X-5.552 Y-41.333 E3.4668
G1 X-5.460 Y-41.346 E3.4690
G1 X-2.773 Y-41.628 E3.5337
G1 X-2.680 Y-41.635 E3.5360
G1 X0.020 Y-41.729 E3.6007
G1 X0.113 Y-41.729 E3.6029
G1 X2.814 Y-41.635 E3.6676
G1 X2.906 Y-41.628 E3.6699
G1 X5.594 Y-41.346 E3.7346
G1 X5.686 Y-41.333 E3.7368
G1 X8.347 Y-40.863 E3.8015
G1 X8.438 Y-40.844 E3.8038
G1 X11.060 Y-40.190 E3.8685
G1 X11.149 Y-40.165 E3.8707
G1 X13.719 Y-39.330 E3.9355
G1 X13.806 Y-39.298 E3.9377
G1 X16.312 Y-38.286 E4.0024
G1 X16.396 Y-38.248 E4.0046
G1 X18.825 Y-37.063 E4.0694
G1 X18.907 Y-37.020 E4.0716
G1 X21.247 Y-35.669 E4.1363
G1 X21.326 Y-35.620 E4.1385
G1 X23.566 Y-34.109 E4.2033
G1 X23.641 Y-34.054 E4.2055
G1 X25.771 Y-32.390 E4.2702
G1 X25.842 Y-32.331 E4.2725
G1 X27.850 Y-30.522 E4.3372
G1 X27.917 Y-30.458 E4.3394
G1 X29.794 Y-28.514 E4.4041
G1 X29.856 Y-28.445 E4.4064
G1 X31.593 Y-26.375 E4.4711
G1 X31.650 Y-26.302 E4.4733
G1 X33.238 Y-24.116 E4.5381
G1 X33.290 Y-24.039 E4.5403
G1 X34.711 Y-21.765 E4.6045
G1 X34.737 Y-21.722 E4.6057
G1 X63.163 Y27.828 E5.9741
G1 X62.591 Y29.951 E6.0268
G1 X43.425 Y41.016 E6.5569
G1 X43.292 Y41.084 E6.5605
G1 X42.471 Y41.442 E6.5819
G1 X42.186 Y41.530 E6.5891
G1 X41.232 Y41.710 E6.6124
G1 X40.934 Y41.733 E6.6195
G1 X39.964 Y41.696 E6.6428
G1 X39.669 Y41.652 E6.6499
G1 X38.731 Y41.401 E6.6732
G1 X38.453 Y41.291 E6.6803
G1 X37.595 Y40.838 E6.7036
G1 X37.348 Y40.670 E6.7107
G1 X36.613 Y40.036 E6.7340
G1 X36.409 Y39.818 E6.7411
G1 X35.877 Y39.097 E6.7626
G1 X35.796 Y38.972 E6.7662
G1 X27.817 Y25.152 E7.1484
G1 X27.567 Y24.795 E7.1589
G1 X27.341 Y24.569 E7.1665
G1 X27.080 Y24.387 E7.1742
G1 X26.791 Y24.252 E7.1818
G1 X26.483 Y24.169 E7.1894
G1 X26.049 Y24.131 E7.1999
G1 X-25.915 Y24.131 E8.4447
G1 X-25.934 Y23.691 F7200
G92 E0.0000
G1 X-26.426 Y23.734 E0.0118 F630
G1 X-26.808 Y23.837 E0.0213
G1 X-27.167 Y24.004 E0.0308
G1 X-27.492 Y24.231 E0.0403
G1 X-27.771 Y24.511 E0.0498
G1 X-28.054 Y24.915 E0.0616
G1 X-36.037 Y38.741 E0.4440
G1 X-36.105 Y38.845 E0.4470
G1 X-36.615 Y39.536 E0.4676
G1 X-36.785 Y39.719 E0.4735
G1 X-37.483 Y40.320 E0.4956
G1 X-37.689 Y40.460 E0.5016
G1 X-38.503 Y40.891 E0.5236
G1 X-38.735 Y40.982 E0.5296
G1 X-39.625 Y41.220 E0.5517
G1 X-39.872 Y41.258 E0.5577
G1 X-40.792 Y41.292 E0.5797
G1 X-41.041 Y41.273 E0.5857
